X:25
T: Die zehnte Tochter
N: Q0094A
O: Suedosteuropa, Jugoslawien, Gottschee
R: Ballade, mythologisch, Vertreibung
M: 3/4
L: 1/8
K: G
D2 | d4B2 | A2A2D2 | d4B2 | A4
AB | c2A2BG | G2D2GB | A2c2F2 | G4

@@@ Tune index: 1318
